X:67
T:Winter Dreams
M:3/4
C:Jonathan Jensen
R:waltz
L:1/8
Q:1/4=130
Z:Alf Warnock - alf0@rogers.com
K:G
B2 d2|"C"e3d cB|"Am"c3B AG|"D7"B2 A4-|A2 G2 A2|
"G"B3A GF|"Em"A3G FE|"Bm"F6-|F2 B,2 D2|
"C"E3F GA|"D"F3G AB|"Em7"G2 d4-|d2 B,2 D2|
"C"E3F GA|"D7"F3G AB|"G"G6-|G2 B2 d2||
"C"g3a ge|"G"d3G Bd|"Bb"=f3g fd|"F"c2 A4|
"C"G3A GE|"G"D2 G2 B2|"Am7"d2 c2 B2|"D"A6|
"G"B2 c2 d2|"C"E3F GE|"Am"A2 B2 c2|"D"D3E FG|
"C"E3F GA|"D7"F3G AB|"G"G6-|G6|]
